X: 93
T: Peine et plaisir tout finira
C: Maria Szymanowska
%%abc-version 2.0
%%abcx-abcm2ps-target-version 5.9.1 (29 Sep 2008)
%%abc-creator hum2abc beta
%%abcx-conversion-date 2021/10/04 07:38:38
%%abc-edited-by Tomasz Grochalski
%%abcx-initial-encoding-date 2021-07-28
%%humdrum-veritas 148876526
%%humdrum-veritas-data 3617688982
%%linebreak <none>
%%barnumbers 0
L: 1/16
M: 6/8
N: Derived from pl-kozmzk--mzk-m-33--001_szymanowska-maria--peine-et-plaisir-tout-finira.krn
Q: "Grazioso"
V: 1 clef=treble
V: 2 clef=treble
V: 3 clef=bass
K: F
[V:1] A2 G2 F2 {/E}D4z2 | 
[V:2] z A,CFA,C z B,DGB,D | 
[V:3] F,6B,,6 | 
[V:1] c2 =B2 _B2 {/^G}A4z2 | 
[V:2] z G,B,EG,B, z A,CFA,C | 
[V:3] C,6F,6 | 
[V:1] f2 e2 _e2 {/^c}d4z2 | 
[V:2] z A,CFA,C z B,DGB,D | 
[V:3] _A,,6B,,6 | 
[V:1] .d2 c2 E2 G2 F2 z2 | 
[V:2] z G,B,EG,B, z A,CFA,C | 
[V:3] C,6F,,4z2 | 
[V:1] G2 ^F2 =F2 {/^D}E4z2 | 
[V:2] z G,=B,FG,B, z G,CEG,C | 
[V:3] G,,6C,4z2 | 
[V:1] A2 ^G2 =G2 E2 F2 z2 | 
[V:2] z A,^CGA,C z A,DFA,D | 
[V:3] A,,6D,4z2 | 
[V:1] c2 =B2 _B2 A2c2 z2 | 
[V:2] z CGBCE z CFA_Ec | 
[V:3] E,6F,4^F,2 | 
[V:1] c2 d2 =B2!accent!g4f2 | 
[V:2] =EcFdD=B EGcDF=B | 
[V:3] G,4G,,2C,4!accent![G,,2G,2] | 
[V:1] e2 f2 d2c4z2 | 
[V:2] EcFdD=B EcC_BB,G | 
[V:3] C,4G,,2C,,6 | 
[V:1] A2 G2 F2 E D!accent!B4- | 
[V:2] z A,CFA,C z B,DGB,D | 
[V:3] F,,6B,,4z2 | 
[V:1] B2A2 G2 FEc4- | 
[V:2] z B,DGB,D z CEGCE | 
[V:3] G,,6C,4z2 | 
[V:1] c2 B2 A2 GF!accent!d4- | 
[V:2] z CEACE z DFADB | 
[V:3] A,,6D,4z2 | 
[V:1] dc =Bc_B c Acfedc | 
[V:2] BC[GB]C[GB]C z C[FA]C[FA]C | 
[V:3] E,4C,2F,4C,2 | 
[V:1] cB ABc BA4z2 | 
[V:2] z C[EB]C[EB]C z C[FA]C[FA]C | 
[V:3] G,4C,2F,4z2 | 
[V:1] G2> D2 !accent!B A !fermata!G !accent!^c d A B G | 
[V:2] z B,DGB,D!fermata![B,4D4G4]z2 | 
[V:3] B,,4z2!fermata!B,,4z2 | 
[V:1] A2B2 G2!accent!c4B2 | 
[V:2] A,FB,BG,G A,CFA,B,G | 
[V:3] C,4C,,2!accent!A,,4B,,2 | 
[V:1] A2 B2 G2!accent!c4B2 | 
[V:2] A,FB,GG,E A,CFA,B,G | 
[V:3] C,4C,,2!accent!A,,4B,,2 | 
[V:1] A2 B2 G2F4z2 | 
[V:2] [A,2F2][B,2G2][G,2E2][A,4F4]z A | 
[V:3] C,2[C,,2C,2][C,,2C,2] F,,A,,C,F,A,C | 
[V:1] x12 | 
[V:2] c4B2 !turn!G2A2B2 | 
[V:3] C,G,B,EB,G, C,G,B,EB,G, | 
[V:1] z12 | 
[V:2] cdc=BcA .fed.c_BA | 
[V:3] C,A,CFA,F, C,A,CFA,F, | 
[V:1] z12 | 
[V:2] c4B2 G2A2G2 | 
[V:3] C,,G,,B,,E,B,,G,, C,,G,,B,,E,G,B, | 
[V:1] !fermata!z12 | 
[V:2] !accent!G6F4!fermata!z2 | 
[V:3] C=B,!accent!_DCB,CA,4!fermata!z2 | 
[V:1] A2G2 F2E4D2 [I:setbarnb 24]| 
[V:2] x A,CFA,C x B,DGB,D | 
[V:3] F,6B,,6 | 
[V:1] c2 =B2 _B2^G4A2 | 
[V:2] x G,B,EG,B, x A,CFA,C | 
[V:3] C,6F,6 | 
[V:1] !accent!f2 e2 _e2 {/^c}d4z2 | 
[V:2] x A,CFA,C x B,DGB,D | 
[V:3] _A,,6B,,6 | 
[V:1] !accent!d2 c2 E2F4z2 | 
[V:2] x G,B,EG,B, x A,CFA,C | 
[V:3] C,6F,,4x2 | 
[V:1] G2 ^F2 =F2^D4E2 | 
[V:2] x G,=B,FG,B, x G,CEG,C | 
[V:3] G,,6C,4x2 | 
[V:1] A2^G2 =G2E4F2 | 
[V:2] x A,^CGA,C x A,DFA,D | 
[V:3] A,,6D,4x2 | 
[V:1] c2 =B2 _B2 A2c2 z2 | 
[V:2] x CGBCE x CFA_Ec | 
[V:3] E,6F,4^F,2 | 
[V:1] c2 d2 =B2g4f2 | 
[V:2] =EcFdD=B EGcDF=B | 
[V:3] G,4G,,2C,4!accent![G,,2G,2] | 
[V:1] e2 f2 d2c4z2 | 
[V:2] EcFdD=B EcC_BB,G | 
[V:3] C,4G,,2C,,6 | 
[V:1] A4G F ED!accent!B4- | 
[V:2] x A,CFA,C x B,DGB,D | 
[V:3] F,,6B,,4x2 | 
[V:1] B4A G F E!accent!c4- | 
[V:2] x B,DGB,D x CEGCE | 
[V:3] G,,6C,4x2 | 
[V:1] c4B A GF!accent!d4- | 
[V:2] x CEACE x DFADB | 
[V:3] A,,6D,4x2 | 
[V:1] dc =Bc_B c Acfedc | 
[V:2] BC[GB]C[GB]C x C[FA]C[FA]C | 
[V:3] E,4C,2F,4C,2 | 
[V:1] cB ABc BA4z2 | 
[V:2] x C[EB]C[EB]C x C[FA]C[FA]C | 
[V:3] G,4C,2F,4x2 | 
[V:1] G2> D2 B A !fermata!G !accent!^c d A B G | 
[V:2] x B,DGB,D!fermata![B,4D4G4]x2 | 
[V:3] B,,4x2!fermata!B,,4x2 | 
[V:1] A2B2 G2!accent!c4B2 | 
[V:2] A,FB,BG,G A,CFA,B,G | 
[V:3] C,4C,,2!accent!A,,4B,,2 | 
[V:1] A2 B2 G2!accent!c4B2 | 
[V:2] A,FB,GG,E A,CFA,B,G | 
[V:3] C,4C,,2!accent!A,,4B,,2 | 
[V:1] A2 B2 G2F4z2 | 
[V:2] [A,2F2][B,2G2][G,2E2][A,4F4]x A | 
[V:3] C,2[C,,2C,2][C,,2C,2] F,,A,,C,F,A,C | 
[V:1] z48 | 
[V:2] c4B2 !turn!G2A2B2 | 
[V:3] C,G,B,EB,G, C,G,B,EB,G, | 
[V:1]  | 
[V:2] cdc=BcA .fed.c_BA | 
[V:3] C,A,CFA,F, C,A,CFA,F, | 
[V:1]  | 
[V:2] c4B2 G2A2G2 | 
[V:3] C,,G,,B,,E,B,,G,, C,,G,,B,,E,G,B, | 
[V:1]  |]  
[V:2] !accent!G6F4x2 |]  
[V:3] C=B,!accent!_DCB,CA,4x2 |]  


